X:1
T:Title
%%score { ( 1 4 ) | ( 2 3 ) }
L:1/8
Q:1/4=100
M:4/4
K:F
V:1 treble nm="Grand Piano"
V:4 treble 
V:2 bass 
V:3 bass 
V:1
 A2 c2 F2 A2 | D2 E2 F2 G2 | AB [CGc]2 [A,F]2 [A,EA]2 | .d2 z2 A2 z2 | [CFc]2 [CFc]2 d2 dc | %5
w: Stanley~L.~Krebs * * *|||||
 z2 B2 c4 | A2 A2 z4 | z4 G2 z2 | [A,FA]2 [Gc]2 [Ge]2 [Bd]2 | A2 B2 A2 F2 | A2 [EB]2 [Ed]2 [EB]2 | %11
w: ||||||
 A2- [GA-]2 [^FA]2 D2 | [DG]2 [^FA]2 [GB]2 [Ac]2 | [Bd]2 ec [Af]2 [GB]2 | %14
w: |||
 [FA]2 [CAc]2 [DBc]2 [CAc]2 | [Gc]2 [Ac]2 [Fc]4 | [FA]2 [FA]2 [DFB]2 [CFA]2 | %17
w: |||
 [B,EG]2 [CEA]2 [A,F]4 |] %18
w: |
V:2
 [F,F]2 [F,E]2 [F,D]2 [F,C]2 | z4 A,2 z2 | [F,CF]2 E,2 z G C,2 | %3
 B,,-[B,,^F,] z[K:treble] B[K:bass] C,2 B,,2 | A,,2 A,G, [F,A,D]2 [^F,A,D]2 | %5
 [G,B,D]2 .[G,B,D]2 [E,C]2 C,2 | .[F,F]2 .[F,D]2 [D,F,]2 _E,D, | z G, ^C,2 z2 _A2 | %8
 F,2 [E,G,]2 [C,C]2 [E,C]2 | F,2 E,2 F,2 A,2 | [CE]2 [C,C]2 [C,B,]2 [C,G,]2 | %11
 [F,A,]2 [_E,C]2 [D,D]2 [C,^F,]2 | [B,,G,]2 [D,D]2[K:treble] [G,D]2 [F,F]2 | %13
 [B,F]2 [G,C]2 [A,C]2 [B,D]2 | C2[K:bass] C,2 C,2 C,2 | [C,B,]2 [C,C]2 [F,A,]4 | %16
 [C,C]2 [C,C]2 C,2 C,2 | C,2 C,2 F,4 |] %18
V:3
 x8 | [F,B,]2 [F,G,]2 F,2- [F,B,]2 | z4 D,2 z2 | .F,2 [B,,G,]2[K:treble][K:bass] z4 | x8 | z4 G,4 | %6
 z4 z2 F,2 | ^C,2 z2 =C,4 | x8 | x8 | x8 | x8 | x4[K:treble] x4 | x8 | x2[K:bass] x6 | x8 | x8 | %17
 x8 |] %18
V:4
 x8 | x8 | x8 | D-[DA] .[Dc]2 [CE]2- [CEG]2 | x8 | B2 z F, z2 E2 | z E z C [FB]2 [FB]2 | %7
 .[F,F]2 [B,F]2 [B,E]4 | x8 | [Cc]8 | x8 | F2 z2 z4 | x8 | z2 B2 z4 | x8 | x8 | x8 | x8 |] %18

